local/share/icons/dracula-icons-main/scalable/mimetypes/x-office-spreadsheet.svg

<?xml version="1.0" encoding="UTF-8"?>
<svg xmlns="http://www.w3.org/2000/svg" xmlns:xlink="http://www.w3.org/1999/xlink" width="64" height="64" viewBox="0 0 64 64">
<defs>
<filter id="filter-remove-color" x="0%" y="0%" width="100%" height="100%">
<feColorMatrix color-interpolation-filters="sRGB" values="0 0 0 0 1 0 0 0 0 1 0 0 0 0 1 0 0 0 1 0" />
</filter>
<mask id="mask-0">
<g filter="url(#filter-remove-color)">
<rect x="-6.4" y="-6.4" width="76.8" height="76.8" fill="rgb(0%, 0%, 0%)" fill-opacity="0.15"/>
</g>
</mask>
<linearGradient id="linear-pattern-0" gradientUnits="userSpaceOnUse" x1="49.570999" y1="52.714001" x2="51.714001" y2="54.856998" gradientTransform="matrix(0.617345, 0, 0, 0.617345, -18.167916, -19.050025)">
<stop offset="0" stop-color="rgb(0%, 0%, 0%)" stop-opacity="1"/>
<stop offset="1" stop-color="rgb(0%, 0%, 0%)" stop-opacity="0"/>
</linearGradient>
<clipPath id="clip-0">
<rect x="0" y="0" width="17" height="17"/>
</clipPath>
<g id="source-15365" clip-path="url(#clip-0)">
<path fill-rule="evenodd" fill="url(#linear-pattern-0)" d="M 14.816406 12.171875 L 11.113281 15.875 L 13.492188 15.875 C 14.226562 15.875 14.816406 15.285156 14.816406 14.550781 Z M 14.816406 12.171875 "/>
</g>
</defs>
<path fill-rule="nonzero" fill="rgb(29.803922%, 68.627451%, 31.372549%)" fill-opacity="1" d="M 3.441406 1.058594 L 13.492188 1.058594 C 14.222656 1.058594 14.816406 1.652344 14.816406 2.382812 L 14.816406 14.550781 C 14.816406 15.28125 14.222656 15.875 13.492188 15.875 L 3.441406 15.875 C 2.707031 15.875 2.117188 15.28125 2.117188 14.550781 L 2.117188 2.382812 C 2.117188 1.652344 2.707031 1.058594 3.441406 1.058594 Z M 3.441406 1.058594 "/>
<g mask="url(#mask-0)">
<use xlink:href="#source-15365"/>
</g>
<path fill-rule="nonzero" fill="rgb(100%, 100%, 100%)" fill-opacity="1" d="M 5.292969 13.230469 L 11.640625 13.230469 L 11.640625 7.9375 L 5.292969 7.9375 Z M 5.820312 8.464844 L 6.878906 8.464844 L 6.878906 9.523438 L 5.820312 9.523438 Z M 7.410156 8.464844 L 11.113281 8.464844 L 11.113281 9.523438 L 7.410156 9.523438 Z M 5.820312 10.054688 L 6.878906 10.054688 L 6.878906 11.113281 L 5.820312 11.113281 Z M 7.410156 10.054688 L 11.113281 10.054688 L 11.113281 11.113281 L 7.410156 11.113281 Z M 5.820312 11.640625 L 6.878906 11.640625 L 6.878906 12.699219 L 5.820312 12.699219 Z M 7.410156 11.640625 L 11.113281 11.640625 L 11.113281 12.699219 L 7.410156 12.699219 Z M 7.410156 11.640625 "/>
</svg>

<svg width="64" height="64" version="1.1" viewBox="0 0 16.933 16.933" xmlns="http://www.w3.org/2000/svg">
 <defs>
  <linearGradient id="a" x1="49.571" x2="51.714" y1="52.714" y2="54.857" gradientTransform="matrix(2.3333,0,0,2.3333,-68.667,-72.001)" gradientUnits="userSpaceOnUse">
   <stop offset="0"/>
   <stop stop-opacity="0" offset="1"/>
  </linearGradient>
 </defs>
 <g transform="scale(.26458)">
  <rect x="8" y="4" width="48" height="56" ry="5" fill="#4caf50" style="paint-order:stroke fill markers"/>
  <path d="m56 46-14 14h9c2.77 0 5-2.23 5-5z" fill="url(#a)" fill-rule="evenodd" opacity=".15" stroke-width="8.8191" style="paint-order:stroke fill markers"/>
 </g>
 <path d="m5.2916 13.229h6.3499v-5.2916h-6.3499zm0.52916-4.7624h1.0583v1.0583h-1.0583zm1.5875 0h3.7041v1.0583h-3.7041zm-1.5875 1.5875h1.0583v1.0583h-1.0583zm1.5875 0h3.7041v1.0583h-3.7041zm-1.5875 1.5875h1.0583v1.0583h-1.0583zm1.5875 0h3.7041v1.0583h-3.7041z" enable-background="new" fill="#fff"/>
</svg>
